X:70
T:Otter's Holt, The
S:The Session: https://thesession.org/tunes/636#setting55382
C:Traditional
R:reel
K:Bm
M:4/4
L:1/8
Q:1/4=120
de|:"Bm" fBBA FEFB|"A" A2 FB ABde|"Bm" fBBA FEFA|"A"(3Bcd cA "Bm" B2 de|
|"Bm"fBBA FEFB|"A" A2 FB ABde|"Bm"fbaf egfe|1dBAF "Bm"B2 de:|2 dBAF "Bm"B2 de|]
|: "D" d2fd Adfa|"G" bfaf "A" egfe|"D" d2fd Adfa|"G" bfaf "A"e2 (3ABc|
|"D" d2fd Adfa|"G" bfaf "A"efde|"Bm" fBBA FEFA|1 "A" (3Bcd cA "Bm"B2 (3ABc:|2 "A"(3Bcd cA "Bm"B4||

